X: 9384
T: Dandy Bash
R: jig
M: 6/8
K: Gmajor
|:GFG EDE|GB/c/B dBd|eAe BAG|EAE GDB|
GFG ED/E/F|GDG dB/c/d|eAe AGE|GBA G3:|
|:dgd gdg|ege dB/c/d|eAe AB/c/d|gdg edB|
dgd gdg|e/f/ge d^cd|eAe AGE|GBA G3:|

